Numix-GalliumOS/32/apps/goa-account-twitter.svg

<?xml version="1.0" encoding="UTF-8" standalone="no"?>
<svg
   xmlns:dc="http://purl.org/dc/elements/1.1/"
   xmlns:cc="http://creativecommons.org/ns#"
   xmlns:rdf="http://www.w3.org/1999/02/22-rdf-syntax-ns#"
   xmlns:svg="http://www.w3.org/2000/svg"
   xmlns="http://www.w3.org/2000/svg"
   xmlns:sodipodi="http://sodipodi.sourceforge.net/DTD/sodipodi-0.dtd"
   xmlns:inkscape="http://www.inkscape.org/namespaces/inkscape"
   viewBox="0 0 32 32"
   id="svg2"
   version="1.1"
   inkscape:version="0.91 r"
   sodipodi:docname="goa-account-twitter.svg"
   width="32"
   height="32">
  <metadata
     id="metadata10">
    <rdf:RDF>
      <cc:Work
         rdf:about="">
        <dc:format>image/svg+xml</dc:format>
        <dc:type
           rdf:resource="http://purl.org/dc/dcmitype/StillImage" />
        <dc:title />
      </cc:Work>
    </rdf:RDF>
  </metadata>
  <defs
     id="defs8" />
  <sodipodi:namedview
     pagecolor="#ffffff"
     bordercolor="#666666"
     borderopacity="1"
     objecttolerance="10"
     gridtolerance="10"
     guidetolerance="10"
     inkscape:pageopacity="0"
     inkscape:pageshadow="2"
     inkscape:window-width="1920"
     inkscape:window-height="1056"
     id="namedview6"
     showgrid="true"
     inkscape:zoom="2.4583333"
     inkscape:cx="-156.2796"
     inkscape:cy="63.965163"
     inkscape:window-x="0"
     inkscape:window-y="24"
     inkscape:window-maximized="1"
     inkscape:current-layer="svg2">
    <inkscape:grid
       type="xygrid"
       id="grid4138" />
  </sodipodi:namedview>
  <path
     d="m 18.272226,8.5637674 c -1.62555,0.605773 -2.65294,2.1648596 -2.536633,3.8714086 l 0.03946,0.659774 -0.650773,-0.081 C 12.75796,12.704486 10.690024,11.655633 8.935013,9.8950835 L 8.076545,9.0206934 7.855005,9.6666205 C 7.38631,11.104553 7.686081,12.62487 8.661549,13.646723 c 0.519234,0.562849 0.402926,0.644542 -0.495003,0.307386 -0.311541,-0.106616 -0.585004,-0.187616 -0.611312,-0.14677 -0.09,0.09485 0.22154,1.317469 0.468695,1.801395 0.337849,0.673621 1.027391,1.331316 1.781319,1.721781 l 0.63762,0.307387 -0.753928,0.01384 c -0.729697,0 -0.753927,0.01384 -0.677081,0.296309 0.260309,0.87439 1.288393,1.801395 2.432092,2.205706 l 0.806544,0.282463 -0.701312,0.429234 c -1.040545,0.618927 -2.263169,0.96716 -3.48233,0.994853 C 7.481849,21.873467 7,21.928147 7,21.968999 c 0,0.133617 1.586087,0.88616 2.510324,1.18247 2.769248,0.87439 6.059807,0.497079 8.531361,-0.994853 1.755012,-1.062006 3.5121,-3.172866 4.331104,-5.216572 0.442388,-1.089007 0.884775,-3.078711 0.884775,-4.034102 0,-0.617542 0.03739,-0.699235 0.767082,-1.437932 0.429233,-0.429233 0.832851,-0.90139 0.909698,-1.035006 0.13154,-0.255463 0.118385,-0.255463 -0.545542,-0.027 -1.106314,0.402233 -1.262085,0.35031 -0.714466,-0.255463 0.402926,-0.4292338 0.88339,-1.2094694 0.88339,-1.4379324 0,-0.040847 -0.195232,0.024923 -0.416079,0.1467702 -0.234694,0.1336162 -0.753928,0.3364636 -1.1437,0.4569259 L 22.294558,9.5447735 21.656939,9.1016939 C 21.306629,8.8600769 20.813011,8.5907675 20.552701,8.509767 19.888773,8.3221505 18.874537,8.3491507 18.276379,8.563767 Z"
     style="fill:#00abec"
     id="path4"
     inkscape:connector-curvature="0" />
</svg>

<svg xmlns="http://www.w3.org/2000/svg" viewBox="0 0 32 32">
 <path d="m 18.272 8.564 c -1.626 0.606 -2.653 2.165 -2.537 3.871 l 0.039 0.66 -0.651 -0.081 c -2.366 -0.309 -4.434 -1.358 -6.189 -3.119 l -0.858 -0.874 -0.222 0.646 c -0.469 1.438 -0.169 2.958 0.807 3.98 c 0.519 0.563 0.403 0.645 -0.495 0.307 -0.312 -0.107 -0.585 -0.188 -0.611 -0.147 -0.09 0.095 0.222 1.317 0.469 1.801 0.338 0.674 1.027 1.331 1.781 1.722 l 0.638 0.307 -0.754 0.014 c -0.73 0 -0.754 0.014 -0.677 0.296 0.26 0.874 1.288 1.801 2.432 2.206 l 0.807 0.282 -0.701 0.429 c -1.041 0.619 -2.263 0.967 -3.482 0.995 c -0.585 0.013 -1.067 0.068 -1.067 0.109 c 0 0.134 1.586 0.886 2.51 1.182 2.769 0.874 6.06 0.497 8.531 -0.995 1.755 -1.062 3.512 -3.173 4.331 -5.217 0.442 -1.089 0.885 -3.079 0.885 -4.03 0 -0.618 0.037 -0.699 0.767 -1.438 0.429 -0.429 0.833 -0.901 0.91 -1.035 0.132 -0.255 0.118 -0.255 -0.546 -0.027 -1.106 0.402 -1.262 0.35 -0.714 -0.255 0.403 -0.429 0.883 -1.209 0.883 -1.438 0 -0.041 -0.195 0.025 -0.416 0.147 -0.235 0.134 -0.754 0.336 -1.144 0.457 l -0.703 0.228 -0.638 -0.443 c -0.35 -0.242 -0.844 -0.511 -1.104 -0.592 -0.664 -0.188 -1.678 -0.161 -2.276 0.054" style="fill:#00abec"/>
</svg>
